svg/mosquito_negative.svg

<svg width="48" height="48" viewBox="0 0 48 48" fill="none" xmlns="http://www.w3.org/2000/svg">
<path fill-rule="evenodd" clip-rule="evenodd" d="M0 0V47.9994H47.9994V0H0ZM14.2498 3.99795C14.3878 3.99955 14.5278 4.05375 14.6328 4.16205L20.4017 10.1699C20.5007 10.2739 20.5577 10.4129 20.5567 10.5589L20.5057 14.5608L22.4567 16.5898L22.4787 15.0208C22.4877 14.2828 22.9807 13.6648 23.6457 13.4668L24.0587 9.55848C24.1267 8.90389 24.2197 8.90619 24.2747 9.56238L24.5877 13.4798C25.2477 13.6958 25.7257 14.3218 25.7187 15.0608L25.6967 16.6288L27.6987 14.6518L27.7457 10.6499C27.7477 10.5049 27.8067 10.3669 27.9097 10.2659L33.8256 4.41015C34.0396 4.19715 34.3826 4.20085 34.5916 4.41794C34.8026 4.63534 34.7976 4.98174 34.5836 5.19333L28.8276 10.8929L28.7786 14.8948C28.7766 15.0398 28.7156 15.1778 28.6126 15.2788L25.6837 18.1818L25.6797 18.3978V18.4018L25.6657 19.1448C28.3516 19.6638 33.7676 20.7237 37.0245 21.4427L37.0285 21.4387C38.3685 21.7347 39.3455 21.9777 39.6145 22.0977C40.7795 22.6157 40.6575 25.0337 38.0855 25.3667C36.1355 25.6197 34.1036 26.2367 32.2986 26.0307L37.9215 34.7066C38.0855 34.9596 38.0155 35.2996 37.7675 35.4666C37.6735 35.5276 37.5685 35.5576 37.4645 35.5566C37.2905 35.5546 37.1235 35.4676 37.0205 35.3106L31.3006 26.4877L31.2966 26.4917L30.7046 25.5757C30.6836 25.5597 30.6666 25.5567 30.6456 25.5487C30.0916 25.2587 29.3826 24.8647 28.6346 24.4407L28.6126 26.3357L28.5956 27.6107H28.5996L28.5426 32.2656L29.4706 34.5736C29.4696 34.5776 29.4706 34.5796 29.4706 34.5816L32.9546 43.2435C33.0676 43.5245 32.9346 43.8445 32.6576 43.9584C32.5896 43.9874 32.5176 44.0004 32.4466 43.9995C32.2366 43.9964 32.0386 43.8705 31.9546 43.6595L29.0676 36.4855C29.0686 36.4815 29.0676 36.4785 29.0676 36.4765L27.4997 32.5816C27.4717 32.5136 27.4577 32.4426 27.4587 32.3686L27.5137 27.9056L27.5607 24.0607C27.4957 23.9447 27.4357 23.8317 27.3667 23.7187C26.7467 23.3617 26.1457 23.0137 25.6267 22.7107L25.5587 28.2336L25.5097 31.9786C25.4977 32.8836 24.7607 33.6136 23.8687 33.6016C22.9767 33.5896 22.2497 32.8406 22.2637 31.9356L22.3137 28.2416L22.3827 22.6677C21.8847 22.9427 21.3127 23.2527 20.7207 23.5737C20.6147 23.7487 20.5127 23.9287 20.4137 24.1067L20.3667 27.9277H20.3707L20.3157 32.2746C20.3087 32.3476 20.2947 32.4206 20.2677 32.4896L18.7868 35.9155V35.9195L15.5368 43.4525C15.4468 43.6605 15.2448 43.7835 15.0348 43.7805C14.9648 43.7805 14.8928 43.7594 14.8238 43.7315C14.5508 43.6115 14.4268 43.2875 14.5468 43.0095L18.4508 33.9666L19.2338 32.1516L19.2948 27.6457C19.2928 27.6457 19.2888 27.6427 19.2868 27.6427L19.3028 26.5737L19.3298 24.3257C18.5708 24.7297 17.8518 25.1047 17.2908 25.3807C17.2768 25.3967 17.2548 25.3997 17.2338 25.4077L16.4898 26.4977H16.4858L10.6799 34.9796C10.5739 35.1356 10.4039 35.2186 10.2299 35.2166C10.1259 35.2146 10.0219 35.1786 9.92958 35.1166C9.68408 34.9436 9.62468 34.5996 9.79478 34.3516L15.5388 25.9587C15.4778 25.9217 15.4188 25.8827 15.3568 25.8417H15.3538C13.6158 25.9167 11.7069 25.3027 9.86118 25.0157C7.29831 24.6167 7.23661 22.1907 8.41399 21.7027C8.65599 21.6027 9.46408 21.4217 10.5879 21.1987C13.7948 20.5627 19.6088 19.5798 22.4297 19.1088L22.4357 18.4858L22.4387 18.1498L19.5798 15.1738C19.4818 15.0688 19.4258 14.9308 19.4278 14.7848L19.4748 10.7829L13.8608 4.93744C13.6498 4.72014 13.6538 4.37355 13.8668 4.16205C13.9738 4.05335 14.1118 4.00445 14.2498 4.00585V3.99795ZM15.5388 25.9587L15.6328 25.8297H15.6248L15.5388 25.9587Z" fill="#333333"/>
</svg>

<?xml version="1.0" encoding="UTF-8" standalone="no"?>
<!-- Created with Inkscape (http://www.inkscape.org/) -->
<svg id="svg8" xmlns:rdf="http://www.w3.org/1999/02/22-rdf-syntax-ns#" xmlns="http://www.w3.org/2000/svg" xmlns:osb="http://www.openswatchbook.org/uri/2009/osb" height="48" width="48" version="1.1" xmlns:cc="http://creativecommons.org/ns#" viewBox="0 0 12.7 12.7" xmlns:dc="http://purl.org/dc/elements/1.1/">
 <title id="title4753">UIO-icon</title>
 <metadata id="metadata5">
  <rdf:RDF>
   <cc:Work rdf:about="">
    <dc:format>image/svg+xml</dc:format>
    <dc:type rdf:resource="http://purl.org/dc/dcmitype/StillImage"/>
    <dc:title>UIO-icon</dc:title>
    <dc:creator>
     <cc:Agent>
      <dc:title>Joaquín Urbano</dc:title>
     </cc:Agent>
    </dc:creator>
    <dc:rights>
     <cc:Agent>
      <dc:title>GPL</dc:title>
     </cc:Agent>
    </dc:rights>
   </cc:Work>
  </rdf:RDF>
 </metadata>
 <g id="layer1" fill="#333" transform="translate(0,-284.3)">
  <path id="rect890" d="m0 0v48h48v-48h-48zm14.25 3.998c0.138 0.0016 0.278 0.0558 0.383 0.1641l5.769 6.0079c0.099 0.104 0.156 0.243 0.155 0.389l-0.051 4.002 1.951 2.029 0.022-1.569c0.009-0.738 0.502-1.356 1.167-1.554l0.413-3.9084c0.068-0.6546 0.161-0.6523 0.216 0.0039l0.313 3.9175c0.66 0.216 1.138 0.842 1.131 1.581l-0.022 1.568 2.002-1.977 0.047-4.002c0.002-0.145 0.061-0.283 0.164-0.384l5.916-5.8558c0.214-0.213 0.557-0.2093 0.766 0.0078 0.211 0.2174 0.206 0.5638-0.008 0.7754l-5.756 5.6996-0.049 4.002c-0.002 0.145-0.063 0.283-0.166 0.384l-2.929 2.903-0.004 0.216v0.004l-0.014 0.743c2.686 0.519 8.102 1.579 11.359 2.298l0.004-0.004c1.34 0.296 2.317 0.539 2.586 0.659 1.165 0.518 1.043 2.936-1.529 3.269-1.95 0.253-3.982 0.87-5.787 0.664l5.623 8.676c0.164 0.253 0.094 0.593-0.154 0.76-0.094 0.061-0.199 0.091-0.303 0.09-0.174-0.002-0.341-0.089-0.444-0.246l-5.72-8.823-0.004 0.004-0.592-0.916c-0.021-0.016-0.038-0.019-0.059-0.027-0.554-0.29-1.263-0.684-2.011-1.108l-0.022 1.895-0.017 1.275h0.004l-0.057 4.655 0.928 2.308c-0.001 0.004 0 0.006 0 0.008l3.484 8.662c0.113 0.281-0.02 0.601-0.297 0.715-0.068 0.029-0.14 0.042-0.211 0.041-0.21-0.003-0.408-0.129-0.492-0.34l-2.887-7.174c0.001-0.004 0-0.007 0-0.009l-1.568-3.895c-0.028-0.068-0.042-0.139-0.041-0.213l0.055-4.463 0.047-3.845c-0.065-0.116-0.125-0.229-0.194-0.342-0.62-0.357-1.221-0.705-1.74-1.008l-0.068 5.523-0.049 3.745c-0.012 0.905-0.749 1.635-1.641 1.623s-1.619-0.761-1.605-1.666l0.05-3.694 0.069-5.574c-0.498 0.275-1.07 0.585-1.662 0.906-0.106 0.175-0.208 0.355-0.307 0.533l-0.047 3.821h0.004l-0.055 4.347c-0.007 0.073-0.021 0.146-0.048 0.215l-1.481 3.426v0.004l-3.25 7.533c-0.09 0.208-0.292 0.331-0.502 0.328-0.07 0-0.142-0.021-0.211-0.049-0.273-0.12-0.397-0.444-0.277-0.722l3.904-9.043 0.783-1.815 0.061-4.506c-0.002 0-0.006-0.003-0.008-0.003l0.016-1.069 0.027-2.248c-0.759 0.404-1.478 0.779-2.039 1.055-0.014 0.016-0.036 0.019-0.057 0.027l-0.744 1.09h-0.004l-5.806 8.482c-0.106 0.156-0.276 0.239-0.45 0.237-0.104-0.002-0.208-0.038-0.3003-0.1-0.2455-0.173-0.3049-0.517-0.1348-0.765l5.7441-8.393c-0.061-0.037-0.12-0.076-0.182-0.117h-0.003c-1.738 0.075-3.647-0.539-5.4927-0.826-2.5629-0.399-2.6246-2.825-1.4472-3.313 0.242-0.1 1.0501-0.281 2.1739-0.504 3.207-0.636 9.021-1.619 11.842-2.09l0.006-0.623 0.003-0.336-2.859-2.976c-0.098-0.105-0.154-0.243-0.152-0.389l0.047-4.002-5.614-5.8455c-0.211-0.2173-0.207-0.5639 0.006-0.7754 0.107-0.1087 0.245-0.1576 0.383-0.1562v-0.0079zm1.289 21.961l0.094-0.129h-0.008l-0.086 0.129z" fill-rule="evenodd" transform="matrix(.26458 0 0 .26458 0 284.3)"/>
 </g>
</svg>
